X:132
T: Anglais #132
T: efter Boström
M:2/4
L:1/16
Q:110
K: Bb
DF |: B2GE cBAG | F2GA B2DF | B2GE cBAG | F2GA B4 :: (Bc)de f2fg |
(fe)dc B2B2 | (BA)Bc d2de | (cB)cd c4 | (Bc)de f2fg | (fe)dc B2B2 | (BA)Bc d2dd|
[1 (cB)Ac B4 :|[2 (cB)Ac B2|]

